; generated by PrusaSlicer 2.9.4 on 2026-03-01 at 18:20:31 UTC


;
;

;
;
; v1.2.3

; external perimeters extrusion width = 0.42mm
; perimeters extrusion width = 0.44mm
; infill extrusion width = 0.44mm
; solid infill extrusion width = 0.44mm
; top infill extrusion width = 0.40mm
; support material extrusion width = 0.35mm
; first layer extrusion width = 0.42mm


; printing object CowV2-Plane.stl id:0 copy 0
; stop printing object CowV2-Plane.stl id:0 copy 0

;TYPE:Custom
G90 ; use absolute coordinates
M83 ; extruder relative mode
M104 S150 ; set temporary nozzle temp to prevent oozing during homing
M140 S60 ; set final bed temp
M190 S60 ; wait for bed temp to stabilize
M220 S100 ;Reset Feedrate
M221 S100 ;Reset Flowrate
G28 ; home all axis and restore leveling
M420 S1 ; restore bed leveling

G1 X2.0 Y10 F3000
G1 Z0.28 F240
M104 S215 ; set final nozzle temp
M109 S215 ; wait for nozzle temp to stabilize

G1 X2 Y30 E2 F1200 ; Slowly move away from the possible blob at the nozzle
G92 E0
G21 ; set units to millimeters
G90 ; use absolute coordinates
M83 ; use relative distances for extrusion
; Filament gcode
M107
;LAYER_CHANGE
;Z:0.2
;HEIGHT:0.2
G1 E-1.4 F2400
G1 Z.4 F9000
G1 X95.305 Y84.502
G1 Z.2
G1 E1.4 F2400
M204 P500
;TYPE:Skirt/Brim
;WIDTH:0.42
G1 F1200
G1 X96.75 Y83.311 E.05871
G1 X97.803 Y82.71 E.03802
G1 X107.522 Y79.474 E.32118
G1 X108.693 Y79.297 E.03713
G1 X109.711 Y79.315 E.03192
G1 X118.761 Y79.5 E.28382
G1 X121.039 Y79.72 E.07176
G1 X121.958 Y79.94 E.02963
G1 X123.713 Y80.614 E.05895
G1 X124.489 Y81.029 E.02759
G1 X125.637 Y81.839 E.04405
G1 X126.235 Y82.372 E.02512
G1 X127.249 Y83.512 E.04784
G1 X133.092 Y90.858 E.2943
G1 X134.128 Y92.42 E.05877
G1 X134.462 Y93.068 E.02286
G1 X139.461 Y105.854 E.43045
G1 X139.895 Y107.228 E.04518
G1 X140.054 Y108.28 E.03336
G1 X140.054 Y111.225 E.09234
G1 X139.659 Y112.855 E.05259
G1 X138.563 Y114.125 E.0526
G1 X136.49 Y114.791 E.06827
G1 X107.043 Y114.807 E.92329
G1 X105.007 Y114.654 E.06402
G1 X101.917 Y114.095 E.09846
G1 X100.461 Y113.66 E.04765
G1 X98.262 Y112.863 E.07334
G1 X96.533 Y111.931 E.06159
G1 X94.868 Y110.798 E.06315
G1 X93.566 Y109.742 E.05256
G1 X92.119 Y108.2 E.0663
G1 X90.98 Y106.655 E.06018
G1 X90.641 Y106.077 E.02101
G1 X89.309 Y103.022 E.1045
G1 X89.121 Y102.361 E.02155
G1 X88.826 Y100.631 E.05503
G1 X88.758 Y99.061 E.04927
G1 X88.903 Y97.425 E.0515
G1 X89.066 Y96.629 E.02548
G1 X89.812 Y94.486 E.07115
G1 X93.712 Y86.827 E.26948
G1 X94.48 Y85.479 E.04864
G1 X95.266 Y84.548 E.0382
M204 P2500
M204 T2500
G1 X95.544 Y84.793 F9000
M204 P500
G1 F1200
G1 X96.99 Y83.602 E.05874
G1 X97.931 Y83.064 E.03399
G1 X107.639 Y79.832 E.32081
G1 X108.687 Y79.674 E.03323
G1 X109.705 Y79.692 E.03192
G1 X118.753 Y79.877 E.28375
G1 X121.001 Y80.095 E.07082
G1 X121.823 Y80.291 E.0265
G1 X123.578 Y80.966 E.05896
G1 X124.272 Y81.337 E.02467
G1 X125.419 Y82.147 E.04403
G1 X125.955 Y82.624 E.0225
G1 X126.954 Y83.746 E.0471
G1 X132.797 Y91.093 E.29433
G1 X133.812 Y92.626 E.05765
G1 X134.11 Y93.205 E.02042
G1 X139.11 Y105.991 E.43046
G1 X139.535 Y107.339 E.04432
G1 X139.677 Y108.28 E.02984
G1 X139.677 Y111.225 E.09234
G1 X139.283 Y112.76 E.04969
G1 X138.199 Y113.916 E.04969
G1 X136.49 Y114.414 E.05581
G1 X107.043 Y114.43 E.92329
G1 X105.062 Y114.281 E.06229
G1 X102.025 Y113.734 E.09676
G1 X100.583 Y113.303 E.04719
G1 X98.438 Y112.53 E.07149
G1 X96.743 Y111.618 E.06035
G1 X95.106 Y110.505 E.06207
G1 X93.803 Y109.449 E.05259
G1 X92.4 Y107.948 E.06442
G1 X90.983 Y105.917 E.07765
G1 X89.66 Y102.884 E.10375
G1 X89.245 Y100.947 E.06211
G1 X89.129 Y99.606 E.0422
G1 X89.278 Y97.458 E.06751
G1 X89.424 Y96.747 E.02276
G1 X90.148 Y94.657 E.06935
G1 X94.048 Y86.998 E.26948
G1 X94.807 Y85.667 E.04804
G1 X95.506 Y84.839 E.03398
M204 P2500
;WIPE_START
G1 F7200
G1 X95.544 Y84.793 E-.01889
G1 X96.99 Y83.602 E-.59322
G1 X97.931 Y83.064 E-.34325
G1 X99.263 Y82.62 E-.44464
;WIPE_END
G1 Z.4 F9000
; printing object CowV2-Plane.stl id:0 copy 0
G1 X136.488 Y111.225
G1 Z.2
G1 E1.4 F2400
M204 P500
;TYPE:Support material interface
;WIDTH:0.35
G1 F1200
G1 X136.488 Y108.28 E.0752
G1 X136.463 Y108.885 E.01546
G1 X136.181 Y109.091 E.00892
G1 X136.181 Y111.087 E.05097
G1 X135.874 Y111.087 E.00784
G1 X135.874 Y109.05 E.05201
G1 X135.567 Y109.026 E.00786
G1 X135.567 Y111.087 E.05263
G1 X135.26 Y111.087 E.00784
G1 X135.26 Y109.003 E.05321
G1 X134.953 Y108.98 E.00786
G1 X134.953 Y111.087 E.0538
G1 X134.646 Y111.087 E.00784
G1 X134.646 Y108.952 E.05451
G1 X134.339 Y108.92 E.00788
G1 X134.339 Y111.087 E.05533
G1 X134.031 Y111.087 E.00786
G1 X134.031 Y108.873 E.05653
G1 X133.724 Y108.82 E.00795
G1 X133.724 Y111.087 E.05789
G1 X133.417 Y111.087 E.00784
G1 X133.417 Y108.768 E.05921
G1 X133.11 Y108.721 E.00793
G1 X133.11 Y111.087 E.06041
G1 X132.803 Y111.087 E.00784
G1 X132.803 Y108.694 E.0611
G1 X132.521 Y108.67 E.00723
G1 X132.496 Y111.087 E.06172
G1 X132.189 Y111.087 E.00784
G1 X132.189 Y108.974 E.05395
G1 X131.882 Y108.949 E.00786
G1 X131.882 Y111.087 E.05459
G1 X131.575 Y111.087 E.00784
G1 X131.575 Y108.923 E.05526
G1 X131.268 Y108.898 E.00786
G1 X131.268 Y111.087 E.05589
G1 X130.961 Y111.087 E.00784
G1 X130.961 Y108.873 E.05653
G1 X130.654 Y108.848 E.00786
G1 X130.654 Y111.087 E.05717
G1 X130.347 Y111.087 E.00784
G1 X130.347 Y108.823 E.05781
G1 X130.039 Y108.798 E.00789
G1 X130.039 Y111.087 E.05845
G1 X129.732 Y111.087 E.00784
G1 X129.732 Y108.77 E.05916
G1 X129.425 Y108.733 E.0079
G1 X129.425 Y111.087 E.06011
G1 X129.118 Y111.087 E.00784
G1 X129.118 Y108.696 E.06105
G1 X128.811 Y108.659 E.0079
G1 X128.811 Y111.087 E.062
G1 X128.504 Y111.087 E.00784
G1 X128.504 Y108.623 E.06292
G1 X128.197 Y108.586 E.0079
G1 X128.197 Y111.087 E.06386
G1 X127.89 Y111.087 E.00784
G1 X127.89 Y108.549 E.0648
G1 X127.583 Y108.512 E.0079
G1 X127.583 Y111.087 E.06575
G1 X127.276 Y111.087 E.00784
G1 X127.276 Y108.475 E.06669
G1 X126.969 Y108.428 E.00793
G1 X126.969 Y111.087 E.06789
G1 X126.662 Y111.087 E.00784
G1 X126.662 Y108.341 E.07012
G1 X126.354 Y108.254 E.00817
G1 X126.354 Y111.087 E.07234
G1 X126.047 Y111.087 E.00784
G1 X126.047 Y108.168 E.07453
G1 X125.74 Y108.069 E.00824
G1 X125.74 Y111.087 E.07706
G1 X125.453 Y111.087 E.00733
G1 X125.433 Y107.97 E.07959
G1 X125.126 Y107.87 E.00824
G1 X125.126 Y108.28 E.01047
G1 X124.819 Y108.28 E.00784
G1 X124.819 Y107.77 E.01302
G1 X124.512 Y107.67 E.00824
G1 X124.512 Y108.28 E.01558
G1 X124.205 Y108.28 E.00784
G1 X124.205 Y107.214 E.02722
G1 X123.898 Y107.114 E.00824
G1 X123.898 Y108.28 E.02977
G1 X123.591 Y108.28 E.00784
G1 X123.591 Y107.013 E.03235
G1 X123.284 Y106.905 E.00831
G1 X123.284 Y108.28 E.03511
G1 X122.977 Y108.28 E.00784
G1 X122.977 Y106.785 E.03817
G1 X122.67 Y106.669 E.00838
G1 X122.67 Y108.28 E.04113
G1 X122.362 Y108.28 E.00786
G1 X122.362 Y107.349 E.02377
G1 X122.055 Y107.266 E.00812
G1 X122.055 Y108.28 E.02589
G1 X121.748 Y108.28 E.00784
G1 X121.748 Y107.182 E.02804
G1 X121.441 Y107.16 E.00786
G1 X121.441 Y108.28 E.0286
G1 X121.134 Y108.28 E.00784
G1 X121.134 Y107.212 E.02727
G1 X120.827 Y107.263 E.00795
G1 X120.827 Y108.28 E.02597
G1 X120.52 Y108.28 E.00784
G1 X120.52 Y107.314 E.02467
G1 X120.213 Y107.459 E.00867
G1 X120.213 Y108.28 E.02096
G1 X119.906 Y108.28 E.00784
G1 X119.906 Y107.454 E.02109
M204 P2500
;WIPE_START
G1 F7200
G1 X119.906 Y108.28 E-.26157
G1 X120.213 Y108.28 E-.09722
G1 X120.213 Y107.459 E-.25998
G1 X120.52 Y107.314 E-.10751
G1 X120.52 Y108.28 E-.3059
G1 X120.827 Y108.28 E-.09722
G1 X120.827 Y107.425 E-.2706
;WIPE_END
G1 Z.4 F9000
G1 X125.129 Y92.839
G1 Z.2
G1 E1.4 F2400
M204 P500
;TYPE:Perimeter
;WIDTH:0.419999
G1 F1200
G1 X125.306 Y92.947 E.0065
G1 X125.58 Y92.962 E.0086
G1 X126.705 Y92.744 E.03593
G1 X127.878 Y92.618 E.03699
G1 X128.737 Y92.78 E.02741
G1 X129.793 Y93.558 E.04113
G1 X130.517 Y94.668 E.04155
G1 X130.883 Y95.766 E.03629
G1 X130.876 Y97.225 E.04575
G1 X130.519 Y98.316 E.03599
G1 X129.612 Y99.624 E.04991
G1 X128.512 Y100.636 E.04687
G1 X127.422 Y101.522 E.04404
G1 X126.086 Y102.473 E.05142
G1 X124.952 Y103.64 E.05102
G1 X124.599 Y104.226 E.02145
G1 X124.563 Y104.427 E.0064
G1 X124.225 Y104.261 E.01181
G1 X123.447 Y103.927 E.02655
G1 X103.943 Y96.325 E.65634
G1 X103.616 Y96.388 E.01044
G1 X103.431 Y96.528 E.00727
G1 X103.21 Y96.953 E.01502
G1 X103.159 Y97.228 E.00877
G1 X103.249 Y97.498 E.00892
G1 X103.454 Y97.688 E.00876
G1 X118.912 Y106.026 E.55069
G1 X119.9 Y106.511 E.03451
G1 X119.483 Y106.657 E.01385
G1 X119.002 Y106.887 E.01672
G1 X117.061 Y108.212 E.07369
G1 X116.151 Y108.672 E.03197
G1 X115.016 Y109.138 E.03847
G1 X113.906 Y109.531 E.03692
G1 X112.615 Y109.91 E.04219
G1 X111.109 Y110.245 E.04837
G1 X109.523 Y110.427 E.05005
G1 X108.237 Y110.526 E.04044
G1 X107.059 Y110.554 E.03695
G1 X105.598 Y110.442 E.04594
G1 X104.251 Y110.246 E.04268
G1 X103.098 Y110.01 E.0369
G1 X101.824 Y109.632 E.04167
G1 X100.194 Y109.075 E.05401
G1 X98.87 Y108.378 E.04691
G1 X97.523 Y107.475 E.05085
G1 X96.286 Y106.473 E.04991
G1 X95.305 Y105.383 E.04598
G1 X94.468 Y104.221 E.0449
G1 X93.708 Y102.592 E.05636
G1 X93.292 Y101.53 E.03576
G1 X93.065 Y100.287 E.03962
G1 X92.999 Y99.381 E.02848
G1 X93.132 Y97.879 E.04728
G1 X93.6 Y96.45 E.04715
G1 X94.595 Y95.302 E.04763
G1 X95.672 Y94.482 E.04244
G1 X96.595 Y93.886 E.03445
G1 X96.984 Y93.469 E.01788
G1 X97.052 Y93.18 E.00931
G1 X96.978 Y91.018 E.06783
G1 X97.089 Y90.083 E.02952
G1 X97.521 Y88.724 E.04471
G1 X98.106 Y87.705 E.03684
G1 X99.363 Y86.669 E.05107
G1 X100.701 Y86.184 E.04462
G1 X102.876 Y86.184 E.0682
G1 X103.444 Y86.152 E.01784
G1 X104.346 Y85.827 E.03006
G1 X105.419 Y85.219 E.03867
G1 X106.984 Y84.126 E.05985
G1 X108.734 Y83.553 E.05774
G1 X110.441 Y83.583 E.05353
G1 X111.822 Y84.023 E.04544
G1 X112.709 Y84.682 E.03465
G1 X113.245 Y85.056 E.02049
G1 X113.503 Y85.092 E.00817
G1 X113.752 Y85.008 E.00824
G1 X114.919 Y84.275 E.04321
G1 X116.205 Y83.916 E.04186
G1 X118.675 Y83.755 E.07761
G1 X120.517 Y83.943 E.05805
G1 X122.107 Y84.554 E.05341
G1 X123.121 Y85.27 E.03892
G1 X123.904 Y86.144 E.03679
G1 X124.666 Y87.393 E.04587
G1 X125.059 Y88.783 E.04529
G1 X125.132 Y90.012 E.0386
G1 X124.907 Y91.818 E.05706
G1 X124.934 Y92.581 E.02394
G1 X125.069 Y92.802 E.00812
G1 X125.078 Y92.808 E.00034
M204 P2500
G1 X125.341 Y92.525 F9000
M204 P500
;TYPE:External perimeter
G1 F1200
G1 X125.355 Y92.554 E.00101
G1 X125.508 Y92.591 E.00494
G1 X126.649 Y92.371 E.03643
G1 X127.893 Y92.237 E.03923
G1 X128.892 Y92.425 E.03187
G1 X130.072 Y93.295 E.04597
G1 X130.859 Y94.503 E.0452
G1 X131.26 Y95.706 E.03976
G1 X131.253 Y97.286 E.04954
G1 X130.86 Y98.485 E.03956
G1 X129.898 Y99.873 E.05295
G1 X128.758 Y100.921 E.04855
G1 X127.649 Y101.822 E.0448
G1 X126.357 Y102.736 E.04962
G1 X125.253 Y103.871 E.04965
G1 X124.951 Y104.361 E.01805
G1 X124.947 Y104.776 E.01301
G1 X125.091 Y105.08 E.01055
G1 X124.649 Y104.906 E.01489
G1 X124.077 Y104.608 E.02022
G1 X123.308 Y104.278 E.02624
G1 X103.904 Y96.715 E.65298
G1 X103.75 Y96.744 E.00491
G1 X103.552 Y97.111 E.01307
G1 X103.541 Y97.24 E.00406
G1 X103.631 Y97.355 E.00458
G1 X119.086 Y105.691 E.55057
G1 X119.982 Y106.138 E.0314
G1 X120.457 Y106.321 E.01596
G1 X121.055 Y106.641 E.02127
G1 X120.399 Y106.746 E.02083
G1 X119.934 Y106.898 E.01534
G1 X119.215 Y107.198 E.02443
G1 X117.253 Y108.538 E.0745
G1 X116.308 Y109.015 E.03319
G1 X115.15 Y109.49 E.03924
G1 X114.022 Y109.89 E.03753
G1 X112.709 Y110.275 E.0429
G1 X111.172 Y110.617 E.04937
G1 X109.559 Y110.803 E.05091
G1 X108.256 Y110.903 E.04097
G1 X107.049 Y110.931 E.03785
G1 X105.556 Y110.817 E.04695
G1 X104.186 Y110.618 E.04341
G1 X103.007 Y110.376 E.03774
G1 X101.709 Y109.991 E.04245
G1 X100.045 Y109.422 E.05514
G1 X98.677 Y108.703 E.04846
G1 X97.298 Y107.779 E.05205
G1 X96.026 Y106.747 E.05136
G1 X95.011 Y105.62 E.04755
G1 X94.141 Y104.413 E.04665
G1 X93.362 Y102.74 E.05786
G1 X92.928 Y101.634 E.03725
G1 X92.69 Y100.334 E.04144
G1 X92.621 Y99.378 E.03005
G1 X92.76 Y97.803 E.04957
G1 X93.265 Y96.26 E.0509
G1 X94.334 Y95.027 E.05117
G1 X95.254 Y94.302 E.03673
G1 X96.352 Y93.594 E.04096
G1 X96.62 Y93.332 E.01175
G1 X96.675 Y93.193 E.00469
G1 X96.601 Y91.002 E.06874
G1 X96.719 Y90.003 E.03154
G1 X97.174 Y88.571 E.04711
G1 X97.813 Y87.458 E.04024
G1 X99.174 Y86.336 E.0553
G1 X100.635 Y85.807 E.04872
G1 X103.319 Y85.796 E.08416
G1 X104.161 Y85.498 E.028
G1 X105.218 Y84.9 E.03808
G1 X106.813 Y83.785 E.06102
G1 X108.677 Y83.174 E.0615
G1 X110.503 Y83.206 E.05726
G1 X111.997 Y83.683 E.04917
G1 X113.408 Y84.713 E.05477
G1 X113.551 Y84.689 E.00455
G1 X114.764 Y83.926 E.04493
G1 X116.141 Y83.542 E.04482
G1 X118.682 Y83.377 E.07984
G1 X120.606 Y83.573 E.06064
G1 X122.286 Y84.219 E.05644
G1 X123.373 Y84.986 E.04171
G1 X124.208 Y85.918 E.03923
G1 X125.015 Y87.241 E.04859
G1 X125.433 Y88.72 E.04819
G1 X125.511 Y90.025 E.04099
G1 X125.284 Y91.818 E.05667
G1 X125.284 Y92.406 E.01844
G1 X125.315 Y92.471 E.00226
M204 P2500
;WIPE_START
G1 F7200
G1 X125.341 Y92.525 E-.01898
G1 X125.355 Y92.554 E-.0102
G1 X125.508 Y92.591 E-.04985
G1 X126.649 Y92.371 E-.36797
G1 X127.893 Y92.237 E-.39621
G1 X128.892 Y92.425 E-.3219
G1 X129.489 Y92.865 E-.23489
;WIPE_END
G1 Z.4 F9000
G1 X117.848 Y105.623
G1 Z.2
G1 E1.4 F2400
M204 P500
;TYPE:Solid infill
;WIDTH:0.4216
G1 F1200
G1 X118.838 Y106.612 E.04406
G1 X118.519 Y106.829 E.01215
G1 X117.104 Y105.414 E.06301
G1 X115.94 Y104.786 E.04165
G1 X118.2 Y107.046 E.10064
G1 X117.882 Y107.263 E.01212
G1 X114.777 Y104.158 E.13827
G1 X113.613 Y103.53 E.04165
G1 X117.564 Y107.481 E.17594
G1 X117.246 Y107.698 E.01212
G1 X112.45 Y102.902 E.21357
G1 X111.287 Y102.274 E.04162
G1 X116.928 Y107.915 E.25119
G1 X116.575 Y108.099 E.01253
G1 X110.123 Y101.646 E.28733
G1 X108.96 Y101.019 E.0416
G1 X116.22 Y108.278 E.32326
G1 X115.853 Y108.448 E.01274
G1 X107.796 Y100.391 E.35878
G1 X106.633 Y99.763 E.04162
G1 X115.474 Y108.603 E.39367
G1 X115.094 Y108.759 E.01293
G1 X105.051 Y98.716 E.44721
M204 P2500
;WIPE_START
G1 F7200
G1 X108.177 Y101.842 E-1.4
;WIPE_END
G1 Z.4 F9000
G1 X121.244 Y84.384
G1 Z.2
G1 E1.4 F2400
M204 P500
G1 F1200
G1 X124.349 Y87.489 E.13827
G1 X124.575 Y88.251 E.02503
G1 X120.669 Y84.344 E.17396
G1 X120.442 Y84.257 E.00765
G1 X120.002 Y84.212 E.01393
G1 X124.748 Y88.959 E.21136
G1 X124.782 Y89.529 E.01798
G1 X119.405 Y84.152 E.23944
G1 X118.809 Y84.091 E.01886
G1 X124.8 Y90.082 E.26678
G1 X124.74 Y90.557 E.01508
G1 X118.284 Y84.102 E.28746
G1 X117.781 Y84.135 E.01587
G1 X124.679 Y91.032 E.30714
G1 X124.619 Y91.508 E.01511
G1 X117.279 Y84.167 E.32687
G1 X116.776 Y84.2 E.01587
G1 X124.757 Y92.181 E.35539
M204 P2500
;WIPE_START
G1 F7200
G1 X121.631 Y89.055 E-1.4
;WIPE_END
G1 Z.4 F9000
G1 X128.059 Y92.805
G1 Z.2
G1 E1.4 F2400
M204 P500
G1 F1200
G1 X130.308 Y95.054 E.10015
G1 X130.562 Y95.844 E.02613
G1 X127.679 Y92.961 E.12838
G1 X127.196 Y93.013 E.0153
G1 X130.559 Y96.377 E.14978
G1 X130.557 Y96.91 E.01678
G1 X126.715 Y93.068 E.17108
G1 X126.263 Y93.152 E.01448
G1 X130.489 Y97.377 E.18816
G1 X130.357 Y97.781 E.01338
G1 X125.666 Y93.091 E.20887
M204 P2500
;WIPE_START
G1 F7200
G1 X128.792 Y96.217 E-1.4
;WIPE_END
G1 Z.4 F9000
G1 X130.344 Y98.304
G1 Z.2
G1 E1.4 F2400
M204 P500
G1 F1200
G1 X116.273 Y84.233 E.62658
G1 X115.852 Y84.347 E.01373
G1 X130.003 Y98.498 E.63014
G1 X129.783 Y98.814 E.01212
G1 X115.433 Y84.464 E.639
G1 X115.022 Y84.588 E.01352
G1 X129.564 Y99.13 E.64755
G1 X129.338 Y99.44 E.01208
G1 X114.693 Y84.794 E.65216
G1 X114.363 Y85.001 E.01227
G1 X129.059 Y99.697 E.65441
G1 X128.78 Y99.953 E.01192
G1 X114.034 Y85.207 E.65664
G1 X113.857 Y85.318 E.00658
G1 X113.674 Y85.382 E.0061
G1 X128.501 Y100.21 E.66027
G1 X128.218 Y100.462 E.01193
G1 X113.09 Y85.334 E.67365
G1 X112.982 Y85.282 E.00377
G1 X111.674 Y84.312 E.05127
G1 X111.467 Y84.246 E.00684
G1 X127.922 Y100.702 E.73276
G1 X127.627 Y100.942 E.01197
G1 X110.68 Y83.995 E.75465
G1 X110.389 Y83.902 E.00962
G1 X110.046 Y83.896 E.0108
G1 X127.331 Y101.182 E.76972
G1 X127.025 Y101.411 E.01203
G1 X109.5 Y83.887 E.78036
G1 X108.955 Y83.877 E.01716
G1 X126.713 Y101.634 E.79074
G1 X126.401 Y101.858 E.01209
G1 X108.507 Y83.964 E.79682
G1 X108.104 Y84.096 E.01335
G1 X126.088 Y102.081 E.80085
G1 X125.865 Y102.241 E.00864
G1 X125.79 Y102.318 E.00338
