; generated by PrusaSlicer 2.9.4 on 2026-03-01 at 23:32:51 UTC


;
;

;
;
; v1.2.3

; external perimeters extrusion width = 0.42mm
; perimeters extrusion width = 0.44mm
; infill extrusion width = 0.44mm
; solid infill extrusion width = 0.44mm
; top infill extrusion width = 0.40mm
; support material extrusion width = 0.35mm
; first layer extrusion width = 0.42mm


; printing object 8719_autosave-Plane.stl id:0 copy 0
; stop printing object 8719_autosave-Plane.stl id:0 copy 0

;TYPE:Custom
G90 ; use absolute coordinates
M83 ; extruder relative mode
M104 S150 ; set temporary nozzle temp to prevent oozing during homing
M140 S60 ; set final bed temp
M190 S60 ; wait for bed temp to stabilize
M220 S100 ;Reset Feedrate
M221 S100 ;Reset Flowrate
G28 ; home all axis and restore leveling
M420 S1 ; restore bed leveling

G1 X2.0 Y10 F3000
G1 Z0.28 F240
M104 S215 ; set final nozzle temp
M109 S215 ; wait for nozzle temp to stabilize

G1 X2 Y30 E2 F1200 ; Slowly move away from the possible blob at the nozzle
G92 E0
G21 ; set units to millimeters
G90 ; use absolute coordinates
M83 ; use relative distances for extrusion
; Filament gcode
M107
;LAYER_CHANGE
;Z:0.2
;HEIGHT:0.2
G1 E-1.4 F2400
G1 Z.4 F9000
G1 X90.5 Y77.464
G1 Z.2
G1 E1.4 F2400
M204 P500
;TYPE:Skirt/Brim
;WIDTH:0.42
G1 F1200
G1 X93.307 Y74.657 E.12447
G1 X94.234 Y73.989 E.03583
G1 X99.848 Y71.182 E.1968
G1 X101.442 Y70.806 E.05135
G1 X126.979 Y70.806 E.80069
G1 X128.609 Y71.2 E.05258
G1 X129.5 Y71.85 E.03458
G1 X132.307 Y74.657 E.12447
G1 X132.753 Y75.201 E.02206
G1 X138.367 Y83.622 E.31733
G1 X138.931 Y85.103 E.04969
G1 X141.356 Y102.579 E.5532
G1 X141.356 Y108.331 E.18035
G1 X140.962 Y109.961 E.05258
G1 X139.866 Y111.23 E.05257
G1 X138.339 Y111.854 E.05172
G1 X101.715 Y117.509 E1.16193
G1 X81.793 Y117.509 E.62464
G1 X80.163 Y117.115 E.05258
G1 X79.272 Y116.465 E.03458
G1 X76.464 Y113.658 E.12449
G1 X75.591 Y112.226 E.05259
G1 X75.42 Y111.136 E.03459
G1 X75.42 Y102.442 E.27259
G1 X75.928 Y100.608 E.05967
G1 X84.35 Y86.572 E.51323
G1 X90.054 Y78.008 E.32263
G1 X90.462 Y77.511 E.02016
M204 P2500
M204 T2500
G1 X90.752 Y77.749 F9000
M204 P500
G1 F1200
G1 X90.767 Y77.731 E.00073
G1 X93.574 Y74.924 E.12447
G1 X94.402 Y74.327 E.03201
G1 X100.016 Y71.52 E.1968
G1 X101.442 Y71.183 E.04594
G1 X126.979 Y71.183 E.80069
G1 X128.514 Y71.577 E.04969
G1 X129.233 Y72.117 E.02819
G1 X132.041 Y74.924 E.12449
G1 X132.439 Y75.41 E.0197
G1 X138.053 Y83.831 E.31733
G1 X138.557 Y85.155 E.04442
G1 X140.979 Y102.579 E.55157
G1 X140.979 Y108.331 E.18035
G1 X140.585 Y109.866 E.04969
G1 X139.501 Y111.022 E.04969
G1 X138.281 Y111.482 E.04088
G1 X101.715 Y117.132 E1.16011
G1 X81.793 Y117.132 E.62464
G1 X80.258 Y116.738 E.04969
G1 X79.538 Y116.198 E.02822
G1 X76.731 Y113.391 E.12447
G1 X75.924 Y112.027 E.04969
G1 X75.797 Y111.136 E.02822
G1 X75.797 Y102.442 E.27259
G1 X76.252 Y100.802 E.05336
G1 X84.673 Y86.766 E.51322
G1 X90.368 Y78.217 E.32208
G1 X90.714 Y77.795 E.01711
M204 P2500
;WIPE_START
G1 F7200
G1 X90.752 Y77.749 E-.01889
G1 X90.767 Y77.731 E-.00742
G1 X93.574 Y74.924 E-1.25707
G1 X93.873 Y74.709 E-.11662
;WIPE_END
G1 Z.4 F9000
; printing object 8719_autosave-Plane.stl id:0 copy 0
G1 X137.791 Y108.331
G1 Z.2
G1 E1.4 F2400
M204 P500
;TYPE:Support material interface
;WIDTH:0.35
G1 F1200
G1 X137.791 Y102.579 E.14687
G1 X137.484 Y102.579 E.00784
G1 X137.484 Y108.193 E.14335
G1 X137.176 Y108.193 E.00786
G1 X137.176 Y102.579 E.14335
G1 X136.869 Y102.579 E.00784
G1 X136.869 Y108.193 E.14335
G1 X136.562 Y108.193 E.00784
G1 X136.562 Y102.579 E.14335
G1 X136.255 Y102.579 E.00784
G1 X136.255 Y108.193 E.14335
G1 X135.948 Y108.193 E.00784
G1 X135.948 Y102.579 E.14335
G1 X135.641 Y102.579 E.00784
G1 X135.641 Y108.193 E.14335
G1 X135.334 Y108.193 E.00784
G1 X135.334 Y102.579 E.14335
G1 X135.027 Y102.579 E.00784
G1 X135.027 Y108.193 E.14335
G1 X134.72 Y108.193 E.00784
G1 X134.72 Y102.579 E.14335
G1 X134.413 Y102.579 E.00784
G1 X134.413 Y108.193 E.14335
G1 X134.106 Y108.193 E.00784
G1 X134.106 Y102.579 E.14335
G1 X133.799 Y102.579 E.00784
G1 X133.799 Y108.193 E.14335
G1 X133.491 Y108.193 E.00786
G1 X133.491 Y102.579 E.14335
G1 X133.184 Y102.579 E.00784
G1 X133.184 Y108.193 E.14335
G1 X132.877 Y108.193 E.00784
G1 X132.877 Y102.579 E.14335
G1 X132.57 Y102.579 E.00784
G1 X132.57 Y108.193 E.14335
G1 X132.457 Y108.193 E.00289
G1 X132.457 Y105.386 E.07167
G1 X132.263 Y105.386 E.00495
G1 X132.263 Y102.579 E.07167
G1 X131.956 Y102.579 E.00784
G1 X131.956 Y105.386 E.07167
G1 X131.649 Y105.386 E.00784
G1 X131.649 Y102.579 E.07167
G1 X131.342 Y102.579 E.00784
G1 X131.342 Y105.386 E.07167
G1 X131.035 Y105.386 E.00784
G1 X131.035 Y102.579 E.07167
G1 X130.728 Y102.579 E.00784
G1 X130.728 Y105.386 E.07167
G1 X130.421 Y105.386 E.00784
G1 X130.421 Y102.579 E.07167
G1 X130.114 Y102.579 E.00784
G1 X130.114 Y105.386 E.07167
G1 X129.807 Y105.386 E.00784
G1 X129.807 Y102.579 E.07167
G1 X129.65 Y102.579 E.00401
G1 X129.65 Y99.772 E.07167
G1 X129.807 Y99.772 E.00401
G1 X129.807 Y94.157 E.14337
G1 X130.114 Y94.157 E.00784
G1 X130.114 Y99.772 E.14337
G1 X130.421 Y99.772 E.00784
G1 X130.421 Y94.157 E.14337
G1 X130.728 Y94.157 E.00784
G1 X130.728 Y99.772 E.14337
G1 X131.035 Y99.772 E.00784
G1 X131.035 Y94.157 E.14337
G1 X131.342 Y94.157 E.00784
G1 X131.342 Y99.772 E.14337
G1 X131.649 Y99.772 E.00784
G1 X131.649 Y94.157 E.14337
G1 X131.956 Y94.157 E.00784
G1 X131.956 Y99.772 E.14337
G1 X132.263 Y99.772 E.00784
G1 X132.263 Y94.019 E.1469
M204 P2500
;WIPE_START
G1 F7200
G1 X132.263 Y98.44 E-1.4
;WIPE_END
G1 Z.4 F9000
G1 X129.499 Y105.524
G1 Z.2
G1 E1.4 F2400
M204 P500
G1 F1200
G1 X129.499 Y94.157 E.29024
G1 X129.192 Y94.157 E.00784
G1 X129.192 Y105.386 E.28672
G1 X128.885 Y105.386 E.00784
G1 X128.885 Y94.157 E.28672
G1 X128.578 Y94.157 E.00784
G1 X128.578 Y105.386 E.28672
G1 X128.271 Y105.386 E.00784
G1 X128.271 Y94.157 E.28672
G1 X127.964 Y94.157 E.00784
G1 X127.964 Y105.386 E.28672
G1 X127.657 Y105.386 E.00784
G1 X127.657 Y94.157 E.28672
G1 X127.35 Y94.157 E.00784
G1 X127.35 Y105.386 E.28672
G1 X127.043 Y105.386 E.00784
G1 X127.043 Y94.157 E.28672
G1 X126.736 Y94.157 E.00784
G1 X126.736 Y105.386 E.28672
G1 X126.429 Y105.386 E.00784
G1 X126.429 Y94.157 E.28672
G1 X126.122 Y94.157 E.00784
G1 X126.122 Y105.386 E.28672
G1 X125.815 Y105.386 E.00784
G1 X125.815 Y94.157 E.28672
G1 X125.507 Y94.157 E.00786
G1 X125.507 Y105.386 E.28672
G1 X125.2 Y105.386 E.00784
G1 X125.2 Y94.157 E.28672
G1 X124.893 Y94.157 E.00784
G1 X124.893 Y105.386 E.28672
G1 X124.586 Y105.386 E.00784
G1 X124.586 Y94.157 E.28672
G1 X124.279 Y94.157 E.00784
G1 X124.279 Y105.386 E.28672
G1 X123.972 Y105.386 E.00784
G1 X123.972 Y94.157 E.28672
G1 X123.665 Y94.157 E.00784
G1 X123.665 Y105.386 E.28672
G1 X123.358 Y105.386 E.00784
G1 X123.358 Y94.157 E.28672
G1 X123.051 Y94.157 E.00784
G1 X123.051 Y105.386 E.28672
G1 X122.744 Y105.386 E.00784
G1 X122.744 Y94.157 E.28672
G1 X122.437 Y94.157 E.00784
G1 X122.437 Y105.386 E.28672
G1 X122.13 Y105.386 E.00784
G1 X122.13 Y94.157 E.28672
G1 X121.822 Y94.157 E.00786
G1 X121.822 Y105.386 E.28672
G1 X121.515 Y105.386 E.00784
G1 X121.515 Y94.157 E.28672
G1 X121.208 Y94.157 E.00784
G1 X121.208 Y105.386 E.28672
G1 X120.901 Y105.386 E.00784
G1 X120.901 Y94.157 E.28672
G1 X120.594 Y94.157 E.00784
G1 X120.594 Y102.225 E.20601
G1 X120.287 Y102.068 E.0088
G1 X120.287 Y94.157 E.202
G1 X119.98 Y94.157 E.00784
G1 X119.98 Y101.911 E.19799
G1 X119.673 Y101.753 E.00882
G1 X119.673 Y94.157 E.19395
G1 X119.366 Y94.157 E.00784
G1 X119.366 Y101.596 E.18995
G1 X119.059 Y101.439 E.0088
G1 X119.059 Y94.157 E.18594
G1 X118.752 Y94.157 E.00784
G1 X118.752 Y101.403 E.18502
G1 X118.445 Y101.403 E.00784
G1 X118.445 Y94.157 E.18502
G1 X118.138 Y94.157 E.00784
G1 X118.138 Y101.403 E.18502
G1 X117.83 Y101.403 E.00786
G1 X117.83 Y94.157 E.18502
G1 X117.523 Y94.157 E.00784
G1 X117.523 Y101.403 E.18502
G1 X117.216 Y101.403 E.00784
G1 X117.216 Y94.157 E.18502
G1 X116.909 Y94.157 E.00784
G1 X116.909 Y101.403 E.18502
G1 X116.602 Y101.403 E.00784
G1 X116.602 Y94.157 E.18502
G1 X116.295 Y94.157 E.00784
G1 X116.295 Y101.403 E.18502
G1 X115.988 Y101.403 E.00784
G1 X115.988 Y94.157 E.18502
G1 X115.681 Y94.157 E.00784
G1 X115.681 Y101.403 E.18502
G1 X115.374 Y101.403 E.00784
G1 X115.374 Y94.157 E.18502
G1 X115.067 Y94.157 E.00784
G1 X115.067 Y101.403 E.18502
G1 X114.76 Y101.403 E.00784
G1 X114.76 Y94.157 E.18502
G1 X114.453 Y94.157 E.00784
G1 X114.453 Y101.403 E.18502
G1 X114.146 Y101.403 E.00784
G1 X114.146 Y94.157 E.18502
G1 X113.838 Y94.157 E.00786
G1 X113.838 Y101.403 E.18502
G1 X113.531 Y101.403 E.00784
G1 X113.531 Y94.157 E.18502
G1 X113.224 Y94.157 E.00784
G1 X113.224 Y101.403 E.18502
G1 X112.917 Y101.403 E.00784
G1 X112.917 Y94.157 E.18502
G1 X112.61 Y94.157 E.00784
G1 X112.61 Y101.403 E.18502
G1 X112.303 Y101.403 E.00784
G1 X112.303 Y94.157 E.18502
G1 X111.996 Y94.157 E.00784
G1 X111.996 Y101.403 E.18502
G1 X111.689 Y101.403 E.00784
G1 X111.689 Y94.157 E.18502
G1 X111.382 Y94.157 E.00784
G1 X111.382 Y101.403 E.18502
G1 X111.075 Y101.403 E.00784
G1 X111.075 Y94.157 E.18502
G1 X110.768 Y94.157 E.00784
G1 X110.768 Y101.403 E.18502
G1 X110.461 Y101.403 E.00784
G1 X110.461 Y94.157 E.18502
G1 X110.153 Y94.157 E.00786
G1 X110.153 Y101.403 E.18502
G1 X109.846 Y101.403 E.00784
G1 X109.846 Y94.157 E.18502
G1 X109.539 Y94.157 E.00784
G1 X109.539 Y101.403 E.18502
G1 X109.232 Y101.403 E.00784
G1 X109.232 Y94.157 E.18502
G1 X108.925 Y94.157 E.00784
G1 X108.925 Y101.403 E.18502
G1 X108.618 Y101.403 E.00784
G1 X108.618 Y94.157 E.18502
G1 X108.311 Y94.157 E.00784
G1 X108.311 Y101.403 E.18502
G1 X108.004 Y101.403 E.00784
G1 X108.004 Y94.157 E.18502
G1 X107.697 Y94.157 E.00784
G1 X107.697 Y101.403 E.18502
G1 X107.39 Y101.403 E.00784
G1 X107.39 Y94.157 E.18502
G1 X107.083 Y94.157 E.00784
G1 X107.083 Y101.403 E.18502
G1 X106.776 Y101.403 E.00784
G1 X106.776 Y94.157 E.18502
G1 X106.469 Y94.157 E.00784
G1 X106.469 Y101.403 E.18502
G1 X106.161 Y101.403 E.00786
G1 X106.161 Y94.157 E.18502
G1 X105.854 Y94.157 E.00784
G1 X105.854 Y101.403 E.18502
G1 X105.547 Y101.403 E.00784
G1 X105.547 Y94.157 E.18502
G1 X105.24 Y94.157 E.00784
G1 X105.24 Y101.403 E.18502
G1 X104.933 Y101.403 E.00784
G1 X104.933 Y94.157 E.18502
G1 X104.626 Y94.157 E.00784
G1 X104.626 Y101.403 E.18502
G1 X104.319 Y101.403 E.00784
G1 X104.319 Y94.157 E.18502
G1 X104.012 Y94.157 E.00784
G1 X104.012 Y101.403 E.18502
G1 X103.705 Y101.403 E.00784
G1 X103.705 Y94.157 E.18502
G1 X103.398 Y94.157 E.00784
G1 X103.398 Y101.403 E.18502
G1 X103.091 Y101.403 E.00784
G1 X103.091 Y94.157 E.18502
G1 X102.784 Y94.157 E.00784
G1 X102.784 Y101.403 E.18502
G1 X102.477 Y101.403 E.00784
G1 X102.477 Y94.157 E.18502
G1 X102.169 Y94.157 E.00786
G1 X102.169 Y101.403 E.18502
G1 X101.862 Y101.403 E.00784
G1 X101.862 Y94.157 E.18502
G1 X101.555 Y94.157 E.00784
G1 X101.555 Y101.403 E.18502
G1 X101.248 Y101.403 E.00784
G1 X101.248 Y94.157 E.18502
G1 X100.941 Y94.157 E.00784
G1 X100.941 Y101.403 E.18502
G1 X100.634 Y101.403 E.00784
G1 X100.634 Y94.157 E.18502
G1 X100.327 Y94.157 E.00784
G1 X100.327 Y101.403 E.18502
G1 X100.02 Y101.403 E.00784
G1 X100.02 Y94.157 E.18502
G1 X99.713 Y94.157 E.00784
G1 X99.713 Y101.403 E.18502
G1 X99.406 Y101.403 E.00784
G1 X99.406 Y94.157 E.18502
G1 X99.099 Y94.157 E.00784
G1 X99.099 Y101.403 E.18502
G1 X98.792 Y101.403 E.00784
G1 X98.792 Y94.157 E.18502
G1 X98.484 Y94.157 E.00786
G1 X98.484 Y101.403 E.18502
G1 X98.177 Y101.403 E.00784
G1 X98.177 Y94.157 E.18502
G1 X97.87 Y94.157 E.00784
G1 X97.87 Y101.403 E.18502
G1 X97.563 Y101.403 E.00784
G1 X97.563 Y94.157 E.18502
G1 X97.256 Y94.157 E.00784
G1 X97.256 Y101.403 E.18502
G1 X96.949 Y101.403 E.00784
G1 X96.949 Y94.157 E.18502
G1 X96.642 Y94.157 E.00784
G1 X96.642 Y101.403 E.18502
G1 X96.335 Y101.403 E.00784
G1 X96.335 Y94.157 E.18502
G1 X96.028 Y94.157 E.00784
G1 X96.028 Y101.403 E.18502
G1 X95.811 Y101.403 E.00554
G1 X95.811 Y101.898 E.01264
G1 X95.721 Y101.979 E.00309
G1 X95.721 Y94.157 E.19973
G1 X95.414 Y94.157 E.00784
G1 X95.414 Y105.386 E.28672
G1 X95.721 Y105.386 E.00784
G1 X95.721 Y102.538 E.07272
G1 X96.028 Y102.88 E.01173
G1 X96.028 Y105.386 E.06399
G1 X96.335 Y105.386 E.00784
G1 X96.335 Y103.228 E.0551
G1 X96.642 Y103.478 E.01011
G1 X96.642 Y105.386 E.04872
G1 X96.949 Y105.386 E.00784
G1 X96.949 Y104.224 E.02967
G1 X97.256 Y104.474 E.01011
G1 X97.256 Y105.386 E.02329
G1 X97.563 Y105.386 E.00784
G1 X97.563 Y104.703 E.01744
G1 X97.87 Y104.909 E.00944
G1 X97.87 Y105.386 E.01218
G1 X98.177 Y105.386 E.00784
G1 X98.177 Y105.116 E.00689
G1 X98.484 Y105.322 E.00944
G1 X98.484 Y105.524 E.00516
M204 P2500
;WIPE_START
G1 F7200
G1 X98.484 Y105.322 E-.06397
G1 X98.177 Y105.116 E-.11707
G1 X98.177 Y105.386 E-.0855
G1 X97.87 Y105.386 E-.09722
G1 X97.87 Y104.909 E-.15105
G1 X97.563 Y104.703 E-.11707
G1 X97.563 Y105.386 E-.21628
G1 X97.256 Y105.386 E-.09722
G1 X97.256 Y104.474 E-.2888
G1 X96.949 Y104.224 E-.12537
G1 X96.949 Y104.352 E-.04045
;WIPE_END
G1 Z.4 F9000
G1 X100.3 Y103.004
G1 Z.2
G1 E1.4 F2400
M204 P500
;TYPE:Support material
;WIDTH:0.42
G1 F1200
G1 X101.466 Y103.619 E.04133
G1 X103.892 Y104.451 E.08041
G1 X103.657 Y105.862 E.04485
G1 X100.966 Y105.862 E.08437
G1 X100.849 Y106.564 E.02231
G1 X103.356 Y107.361 E.08248
G1 X105.986 Y107.818 E.0837
G1 X107.329 Y107.921 E.04223
G1 X107.329 Y111.136 E.1008
G1 X101.715 Y111.136 E.17602
G1 X101.715 Y113.943 E.08801
G1 X81.793 Y113.943 E.62464
G1 X81.793 Y111.136 E.08801
G1 X78.986 Y111.136 E.08801
G1 X78.986 Y102.442 E.27259
G1 X92.794 Y102.442 E.43294
G1 X92.794 Y105.749 E.10369
G1 X99.135 Y105.749 E.19882
G1 X99.135 Y105.314 E.01364
G1 X97.632 Y104.311 E.05666
G1 X97.035 Y103.826 E.02412
G1 X97.646 Y103.826 E.01916
G1 X96.779 Y103.121 E.03504
G1 X96.984 Y102.87 E.01016
G1 X96.694 Y102.594 E.01255
G1 X96.454 Y102.81 E.01012
G1 X96.123 Y102.442 E.01552
G1 X96.175 Y101.766 E.02126
G1 X98.227 Y101.766 E.06434
G1 X100.251 Y102.975 E.07392
M204 P2500
;WIPE_START
G1 F7200
G1 X98.227 Y101.766 E-.74657
G1 X96.175 Y101.766 E-.6498
G1 X96.174 Y101.777 E-.00363
;WIPE_END
G1 Z.4 F9000
G1 X106.648 Y110.967
G1 Z.2
G1 E1.4 F2400
M204 P500
G1 F1200
G1 X106.648 Y108.21 E.08644
G1 X106.229 Y108.178 E.01318
G1 X106.229 Y110.797 E.08212
G1 X105.81 Y110.797 E.01314
G1 X105.81 Y108.135 E.08347
G1 X105.391 Y108.074 E.01328
G1 X105.391 Y110.797 E.08538
G1 X104.972 Y110.797 E.01314
G1 X104.972 Y108.013 E.08729
G1 X104.553 Y107.952 E.01328
G1 X104.553 Y110.797 E.0892
G1 X104.134 Y110.797 E.01314
G1 X104.134 Y107.867 E.09187
G1 X103.715 Y107.781 E.01341
G1 X103.715 Y110.797 E.09456
G1 X103.296 Y110.797 E.01314
G1 X103.296 Y107.695 E.09726
G1 X102.877 Y107.574 E.01367
G1 X102.877 Y110.797 E.10105
G1 X102.458 Y110.797 E.01314
G1 X102.458 Y107.449 E.10497
G1 X102.039 Y107.324 E.01371
G1 X102.039 Y110.797 E.10889
G1 X101.62 Y110.797 E.01314
G1 X101.62 Y107.187 E.11319
G1 X101.201 Y107.043 E.01389
G1 X101.201 Y113.604 E.20572
G1 X100.783 Y113.604 E.01311
G1 X100.783 Y106.9 E.2102
G1 X100.467 Y106.791 E.01048
G1 X100.678 Y105.522 E.04033
G1 X100.783 Y105.522 E.00329
G1 X100.783 Y103.642 E.05895
G1 X100.364 Y103.422 E.01484
G1 X100.364 Y113.604 E.31925
G1 X99.945 Y113.604 E.01314
G1 X99.945 Y103.187 E.32662
G1 X99.526 Y102.937 E.0153
G1 X99.526 Y113.604 E.33446
G1 X99.107 Y113.604 E.01314
G1 X99.107 Y106.089 E.23563
G1 X98.688 Y106.089 E.01314
G1 X98.688 Y113.604 E.23563
G1 X98.269 Y113.604 E.01314
G1 X98.269 Y106.089 E.23563
G1 X97.85 Y106.089 E.01314
G1 X97.85 Y113.604 E.23563
G1 X97.431 Y113.604 E.01314
G1 X97.431 Y106.089 E.23563
G1 X97.012 Y106.089 E.01314
G1 X97.012 Y113.604 E.23563
G1 X96.593 Y113.604 E.01314
G1 X96.593 Y106.089 E.23563
G1 X96.174 Y106.089 E.01314
G1 X96.174 Y113.604 E.23563
G1 X95.755 Y113.604 E.01314
G1 X95.755 Y106.089 E.23563
G1 X95.336 Y106.089 E.01314
G1 X95.336 Y113.604 E.23563
G1 X94.917 Y113.604 E.01314
G1 X94.917 Y106.089 E.23563
G1 X94.498 Y106.089 E.01314
G1 X94.498 Y113.604 E.23563
G1 X94.079 Y113.604 E.01314
G1 X94.079 Y106.089 E.23563
G1 X93.66 Y106.089 E.01314
G1 X93.66 Y113.604 E.23563
G1 X93.241 Y113.604 E.01314
G1 X93.241 Y106.089 E.23563
G1 X92.822 Y106.089 E.01314
G1 X92.822 Y113.604 E.23563
